resources/haticons/SVG/upload.svg

<!-- Generated by IcoMoon.io -->
<svg version="1.1" xmlns="http://www.w3.org/2000/svg" width="24" height="24" viewBox="0 0 24 24">
<title>upload</title>
<path d="M10.5 13.5h3v-6h4.5l-6-6-6 6h4.5zM15 10.125v2.314l6.869 2.561-9.869 3.68-9.869-3.68 6.869-2.561v-2.314l-9 3.375v6l12 4.5 12-4.5v-6z"></path>
</svg>

<svg xmlns="http://www.w3.org/2000/svg" width="24" height="24"><path d="M10.5 13.5h3v-6H18l-6-6-6 6h4.5zm4.5-3.375v2.314L21.869 15 12 18.68 2.131 15 9 12.439v-2.314L0 13.5v6L12 24l12-4.5v-6z"/></svg>
